static/assets/images/icons/coingecko.svg

<svg width="256" height="256" viewBox="0 0 256 256" fill="none" xmlns="http://www.w3.org/2000/svg">
<path d="M101.395 75.1543C101.225 66.857 107.174 59.7587 114.804 58.4452C127.279 56.1021 136.19 68.0244 133.838 79.0285C133.558 80.4469 133.092 81.8632 132.421 83.2493C131.271 85.6259 129.662 87.529 127.778 88.9587C119.294 96.2392 105.379 91.7913 102.226 80.4706C101.658 78.6757 101.393 76.8889 101.395 75.1543Z" fill="black"/>
<path d="M168.367 48.5338C164.326 41.2933 153.293 35.5601 142.177 38.3935C134.302 40.4007 138.54 40.9494 144.59 41.7328C148.226 42.2035 152.227 43.1761 154.936 44.1836C157.75 45.2302 161.271 46.869 163.927 48.5589C168.084 51.2032 170.832 52.9513 168.367 48.5338Z" fill="black"/>
<path fill-rule="evenodd" clip-rule="evenodd" d="M132.967 203.488C132.281 211.644 127.179 217.42 119.274 220.24C102.444 226.242 73.8782 226.421 55.5022 217.42C49.6158 214.537 43.9879 211.31 39.3873 207.919C33.0013 203.213 31.794 194.659 34.0473 186.891C39.1487 169.306 46.4802 141.034 49.1786 102.938C51.344 72.3678 60.0056 57.4555 82.3814 46.2713C100.426 37.3239 114.141 35.087 131.464 38.8151L135.073 39.5607C148.728 33.4468 166.11 38.8151 169.719 49.9993C169.806 50.1796 169.873 50.338 169.933 50.4825C170.372 51.5341 170.504 51.851 176.215 54.473L197.148 61.9292C215.193 67.1485 225.298 73.1134 230.35 82.0608C235.403 91.7538 232.653 104.426 226.947 116.657C222.144 126.952 205.195 137.159 198.734 140.501C171.324 154.675 137.632 147.942 132.967 203.488ZM168.367 48.5338C164.326 41.2933 153.293 35.5601 142.177 38.3935C134.302 40.4007 138.54 40.9494 144.59 41.7328C148.226 42.2035 152.227 43.1761 154.936 44.1836C157.75 45.2302 161.271 46.869 163.927 48.5589C168.084 51.2032 170.832 52.9513 168.367 48.5338ZM215.428 118.293C187.828 132.882 160.571 135.442 141.805 128.732C139.706 127.865 138.828 127.502 138.744 127.643C138.687 127.738 138.993 128.063 139.529 128.618C139.565 128.655 139.602 128.693 139.639 128.732C145.414 133.951 157.684 136.934 168.511 136.188C183.669 134.697 209.735 125.958 220.475 116.657C221.59 115.692 222.507 114.904 223.243 114.271C223.346 114.183 223.446 114.097 223.542 114.014C223.544 114.013 223.546 114.011 223.548 114.01C223.55 114.008 223.551 114.007 223.553 114.005L223.562 113.997L223.578 113.983C225.051 112.719 225.689 112.171 225.662 112.133C225.642 112.106 225.281 112.341 224.641 112.762L224.51 112.848C222.841 113.945 219.503 116.14 215.428 118.293ZM122.022 50.989C140.788 53.9715 148.007 78.5768 134.292 92.7435C131.41 95.5956 127.88 97.6538 124.027 98.729C120.174 99.8042 116.121 99.862 112.24 98.897C108.36 97.932 104.776 95.9751 101.819 93.2062C98.8614 90.4373 96.6251 86.9451 95.3151 83.0505C89.5407 65.1557 103.977 47.2609 122.022 50.989ZM199.549 103.381C196.661 100.398 198.004 96.3416 201.613 95.596C205.222 94.8504 208.21 98.1616 206.767 101.89C205.323 104.872 201.714 105.618 199.549 103.381Z" fill="black"/>
<path fill-rule="evenodd" clip-rule="evenodd" d="M223.548 114.01L223.542 114.014C223.446 114.097 223.346 114.183 223.243 114.271C223.348 114.181 223.45 114.094 223.548 114.01Z" fill="black"/>
</svg>

<svg xmlns="http://www.w3.org/2000/svg" fill="none" viewBox="0 0 256 256"><path fill="#000" d="M101.395 75.154c-.17-8.297 5.779-15.395 13.409-16.709 12.475-2.343 21.386 9.58 19.034 20.583a17.4 17.4 0 0 1-1.417 4.221c-1.15 2.377-2.759 4.28-4.643 5.71-8.484 7.28-22.399 2.832-25.552-8.488a17.5 17.5 0 0 1-.831-5.317m66.972-26.62c-4.041-7.24-15.074-12.974-26.19-10.14-7.875 2.007-3.637 2.555 2.413 3.339 3.636.47 7.637 1.443 10.346 2.45 2.814 1.047 6.335 2.686 8.991 4.376 4.157 2.644 6.905 4.392 4.44-.025"/><path fill="#000" fill-rule="evenodd" d="M132.967 203.488c-.686 8.156-5.788 13.932-13.693 16.752-16.83 6.002-45.396 6.181-63.772-2.82-5.886-2.883-11.514-6.11-16.115-9.501-6.386-4.706-7.593-13.26-5.34-21.028 5.102-17.585 12.433-45.857 15.132-83.953 2.165-30.57 10.827-45.482 33.202-56.667 18.045-8.947 31.76-11.184 49.083-7.456l3.609.746c13.655-6.114 31.037-.746 34.646 10.438.087.18.154.339.214.483.439 1.052.571 1.369 6.282 3.991l20.933 7.456c18.045 5.22 28.15 11.184 33.202 20.132 5.053 9.693 2.303 22.365-3.403 34.596-4.803 10.295-21.752 20.502-28.213 23.844-27.41 14.174-61.102 7.441-65.767 62.987m35.4-154.954c-4.041-7.24-15.074-12.974-26.19-10.14-7.875 2.007-3.637 2.555 2.413 3.339 3.636.47 7.637 1.443 10.346 2.45 2.814 1.047 6.335 2.686 8.991 4.376 4.157 2.644 6.905 4.392 4.44-.025m47.061 69.759c-27.6 14.589-54.857 17.149-73.623 10.439-2.099-.867-2.977-1.23-3.061-1.089-.057.095.249.42.785.975l.11.114c5.775 5.219 18.045 8.202 28.872 7.456 15.158-1.491 41.224-10.23 51.964-19.531 1.115-.965 2.032-1.753 2.768-2.386l.299-.257.006-.004.005-.005.009-.008.016-.014c1.473-1.264 2.111-1.812 2.084-1.85-.02-.027-.381.208-1.021.629l-.131.086c-1.669 1.097-5.007 3.292-9.082 5.445m-93.406-67.304c18.766 2.983 25.985 27.588 12.27 41.755a23.6 23.6 0 0 1-10.265 5.985 23.1 23.1 0 0 1-11.787.168 23.6 23.6 0 0 1-10.421-5.69 24.7 24.7 0 0 1-6.504-10.156c-5.774-17.895 8.662-35.79 26.707-32.062m77.527 52.392c-2.888-2.983-1.545-7.04 2.064-7.785s6.597 2.566 5.154 6.294c-1.444 2.982-5.053 3.728-7.218 1.491" clip-rule="evenodd"/><path fill="#000" fill-rule="evenodd" d="m223.548 114.01-.006.004-.299.257z" clip-rule="evenodd"/></svg>
